X:1
T: Miss Anne
C:
R:Jig
Q:180
K:F
M:6/8
L:1/16
|:C2|F2F2G2 A2A2B2|c2A2F2 d6|c2A2F2 B6|A2F2C2 G4C2|
F2F2G2 A2A2B2|c2A2F2 d6|c2f2A2 G2F2G2|F2F2F2 F4:|
|:c2|c2f2f2 d2f2f2|c2f2f2 c2B2A2|G2G2G2 G4C2|G2G2G2 G4c2|
F2F2G2 A2A2B2|c2A2F2 d6|c2f2A2 G2F2G2|F2F2F2 F4:|
